!!!COM: Palestrina, Giovanni Perluigi da
!!!OPR: Missa Qual e il piu grande'amore
!!!OMD: Credo
!!!OTL: Et incarnatus
**kern	**kern	**kern	**kern	**kern
*Ibass	*Itenor	*Icalto	*Icant	*Icant
!Bassus	!Tenor	!Altus	!Cantus 2	!Cantus 1
*clefF4	*clefGv2	*clefG2	*clefG2	*clefG2
*k[b-]	*k[b-]	*k[b-]	*k[b-]	*k[b-]
*F:ion	*F:ion	*F:ion	*F:ion	*F:ion
*M4/2	*M4/2	*M4/2	*M4/2	*M4/2
=63	=63	=63	=63	=63
0F	0r	0f	0a	0cc
=64	=64	=64	=64	=64
1G	0r	1d	1g	1b-
1D	.	1d	1f#	1a
=65	=65	=65	=65	=65
1G	0r	1.d	1g	1b-
1G	.	.	1g	1b-
.	.	2e	.	.
=66	=66	=66	=66	=66
1F	0c	1f	1cc	1a
1r	.	1e	1cc	1g
=67	=67	=67	=67	=67
0r	1d	2f	2a	2f
.	.	2d	2b-	2f
.	1A	1e	2.cc	2a
.	.	.	.	[2cc
.	.	.	4b-	.
=68	=68	=68	=68	=68
0r	1d	0f	2a	2cc]
.	.	.	2g	4b-
.	.	.	.	4a
.	1d	.	1f	1b-
=69	=69	=69	=69	=69
2r	2c	1e	2g	2cc
1C	1c	.	1e	1g
.	.	1r	.	.
2C	2c	.	2e	2g
=70	=70	=70	=70	=70
1F	2c	0r	1f	1a
.	1A	.	.	.
1D	.	.	1f	1dd
.	[2B-	.	.	.
=71	=71	=71	=71	=71
1F	2B-]	0r	1.f	1.cc
.	4A	.	.	.
.	4G	.	.	.
1F	2A	.	.	.
.	2A	.	2f	2cc
=72	=72	=72	=72	=72
1BB-	1B-	1r	1f	1dd
1F	1A	1f	1a	1cc
=73	=73	=73	=73	=73
1BB-	1d	1.f	1b-	2b-
.	.	.	.	4f
.	.	.	.	4g
1AA	1c	.	1cc	4a
.	.	.	.	4b-
.	.	2e	.	2a
=74	=74	=74	=74	=74
1BB-	2.B-	2.d	0dd	2f
.	.	.	.	2.g
.	8A	8c	.	.
.	8G	8B-	.	.
1D	1F	2A	.	.
.	.	.	.	4f
.	.	2B-	.	[2f
=75	=75	=75	=75	=75
0C	0G	0c	0g	2f]
.	.	.	.	4e
.	.	.	.	4d
.	.	.	.	1e
=76	=76	=76	=76	=76
0F	0F	0c	0a	0f
*-	*-	*-	*-	*-
!!!CDT: 1525/^1526/-1594/2/2
!!!OCY: Italia
!!!AGN: Mass (Parody)
!!!AST: renaissance, vocal
!!!ASW: Madrigal 1550 (Rore)
!!!PWK: Masses, Book 12
!!!RNB: Cadence finals: C
!!!YOR: Le Opere Complete, v. 29, p. 88
!!!YOO: Rome, Italy: Fratelli Scalera
!!!END: 1992//
!!!EED: John Miller
!!!YEC: Copyright 2000, John Miller
!!!YEN: United States of America
!!!YEM: Rights to all derivative electronic formats reserved.
!!!YEM: Refer to licensing agreement for further details.
!!!YEM: This file must be accompanied by the licensing agreement.
!!!YEM: A copy of the licensing agreement may be found at http://www.music-cog.ohio-state.edu/HumdrumDatabases/Palestrina/license.txt
!!!EMD: converted to Humdrum by Bret Aarden
